!!!OTL: Schoen Adelheid.
!!!OTL-incipit: Es war einmal ein Kuepper gut,
!!!ARE: Europa, Mitteleuropa, Deutschland (BRD), Rheinland, Muelheim Rh., Paffrath
!!!YOR: 4, S. 55
!!    1838 aufgezeichnet (vor)
!!!SCT: Q0074
!!!TXL: @@DE
!!!YEM: Copyright 1995, estate of Helmut Schaffrath.
**kern	**text
*ICvox	*
*M3/8	*
*k[]	*
*a:	*
!LO:TX:a:t=Langsam.	!
{8e	1._Es
=1	=1
4e	war
8a	ein-
=2	=2
8bq	.
8aL	-mal
8g#J	.
8a	ein
=3	=3
4b	Küp-
16ccL	-per
16bJ	.
=4	=4
4a}	gut,
{16bL	der
16ddJ	.
=5	=5
8ccL	ſtahl
8bJ	.
8a	des
=6	=6
8aq	.
8g#L	Gra-
8fJ	.
8e	-fen
=7	=7
8.aL	Toch-
16b	.
8ccJ	.
=8	=8
4b}	-ter,
{8b	er
=9	=9
8ccq	.
8bL	bracht'
8aJ	.
16bL	ſie
16ccJ	.
=10	=10
8ddL	ei-
8ccJ	.
8b	-nem
=11	=11
8ccL	Kö-
8bJ	.
8a	-nig
=12	=12
8aL	ʒu,
8g#J}	.
{8f	er
=13	=13
8eL	tät
8fJ	.
8g#	ſie
=14	=14
8aL	teu'r
8bJ	.
8cc	ver-
=15	=15
8b	-kau-
8a;}	-fen.
==	==
!!!AGN: Ballade, Entfuehrung, Adelige als Dienstmagd, Wiederfinden
!! Verzierungen (Vorschlaege)
!!!ONB: ESAC (Essen Associative Code) Database: BALLADE
!!!AMT: simple triple
!!!AIN: vox
!!!EED: Helmut Schaffrath
!!!EEV: 1.0
!!@@COMMENT:"A 161 409. Pfaffrath (Ldtr. Mülheim Rh. ). Aus der höſchr. Sammlung bergiſcher Volkslieder vor 1838."
!!@@END:
!!!source: Deutsche Volkslieder mit ihren Melodien. Herausgegeben vom Deutschen Volksliedarchiv. Vierter Band. Berlin 1959.
!!!page: 55
!!!ENC: Anna Maria Matuszewska
!!!EEV: 2025/02/27
*-	*-
